resources/icons/16px/color-fill.svg

<svg width="16" height="16" viewBox="0 0 16 16" fill="none" xmlns="http://www.w3.org/2000/svg">
<path fill-rule="evenodd" clip-rule="evenodd" d="M3.09319 7C3.11001 6.95077 3.12919 6.90074 3.15079 6.85034C3.25733 6.60174 3.37576 6.45267 3.41421 6.41421L7 2.82843L11.1716 7L3.09319 7ZM6.5 13C7.5 13 8.99999 12 9.49999 11.5L12.5858 8.41421L14 7L12.5858 5.58579L8.41421 1.41421L7 0L5.58579 1.41421L2 5C1.5 5.5 1 6.5 1 7.5C1 8.5 1.5 9.5 2 10L4 12C4.5 12.5 5.5 13 6.5 13ZM13.5 9L14.625 10.6667C14.8633 11.0197 15 11.3333 15 11.6667C15 12.3333 14.625 13 13.5 13C12.375 13 12 12.3333 12 11.6667C12 11.3333 12.1367 11.0197 12.375 10.6667L13.5 9ZM0 15C0 14.4477 0.447715 14 1 14H15C15.5523 14 16 14.4477 16 15C16 15.5523 15.5523 16 15 16H1C0.447715 16 0 15.5523 0 15Z" fill="black"/>
</svg>

<svg xmlns="http://www.w3.org/2000/svg" viewBox="0 0 16 16">
  <path d="M3.093 7q.025-.075.058-.15c.106-.248.225-.397.263-.436L7 2.828 11.172 7zM6.5 13c1 0 2.5-1 3-1.5l3.086-3.086L14 7l-1.414-1.414-4.172-4.172L7 0 5.586 1.414 2 5c-.5.5-1 1.5-1 2.5s.5 2 1 2.5l2 2c.5.5 1.5 1 2.5 1m7-4 1.125 1.667c.238.353.375.666.375 1 0 .666-.375 1.333-1.5 1.333s-1.5-.667-1.5-1.333c0-.334.137-.647.375-1zM0 15a1 1 0 0 1 1-1h14a1 1 0 1 1 0 2H1a1 1 0 0 1-1-1"/>
</svg>
